public/navbar-icon-eyes.svg

<svg width="24" height="24" viewBox="0 0 24 24" fill="none" xmlns="http://www.w3.org/2000/svg">
<path d="M5.09023 12.7849C5.00023 12.7849 4.90523 12.7599 4.82023 12.7099C4.56523 12.5599 4.48023 12.2349 4.63023 11.9799C5.08023 11.2049 6.05523 9.72994 7.49523 8.51994C8.94523 7.30494 10.4602 6.68994 12.0002 6.68994C12.2952 6.68994 12.5352 6.92994 12.5352 7.22494C12.5352 7.51994 12.2952 7.75994 12.0002 7.75994C9.29023 7.75994 6.89523 10.2199 5.55023 12.5199C5.45023 12.6899 5.27023 12.7849 5.09023 12.7849Z" fill="#878787"/>
<path d="M12.0002 17.8149C10.4602 17.8149 8.94523 17.1999 7.49523 15.9849C6.05023 14.7749 5.08023 13.2949 4.63023 12.5249C4.48023 12.2699 4.56523 11.9449 4.82023 11.7949C5.07523 11.6449 5.40023 11.7299 5.55023 11.9849C6.89523 14.2849 9.29023 16.7449 12.0002 16.7449C12.2952 16.7449 12.5352 16.9849 12.5352 17.2799C12.5352 17.5749 12.2952 17.8149 12.0002 17.8149Z" fill="#878787"/>
<path d="M12.0003 17.8149C11.7053 17.8149 11.4653 17.5749 11.4653 17.2799C11.4653 16.9849 11.7053 16.7449 12.0003 16.7449C14.7103 16.7449 17.1053 14.2849 18.4503 11.9849C18.6003 11.7299 18.9253 11.6449 19.1803 11.7949C19.4353 11.9449 19.5203 12.2699 19.3703 12.5249C18.9203 13.2999 17.9453 14.7749 16.5053 15.9849C15.0553 17.1999 13.5403 17.8149 12.0003 17.8149Z" fill="#878787"/>
<path d="M18.9152 12.7849C18.7302 12.7849 18.5552 12.6899 18.4552 12.5199C17.1102 10.2199 14.7152 7.75994 12.0052 7.75994C11.7102 7.75994 11.4702 7.51994 11.4702 7.22494C11.4702 6.92994 11.7102 6.68994 12.0052 6.68994C13.5452 6.68994 15.0602 7.30494 16.5102 8.51994C17.9552 9.72994 18.9252 11.2099 19.3752 11.9799C19.5252 12.2349 19.4402 12.5599 19.1852 12.7099C19.1002 12.7599 19.0102 12.7849 18.9152 12.7849Z" fill="#878787"/>
<path d="M12.0001 15.6149C10.1451 15.6149 8.64014 14.1049 8.64014 12.2549C8.64014 10.4049 10.1501 8.8949 12.0001 8.8949C13.8501 8.8949 15.3601 10.4049 15.3601 12.2549C15.3601 14.1049 13.8501 15.6149 12.0001 15.6149ZM12.0001 9.9599C10.7351 9.9599 9.70514 10.9899 9.70514 12.2549C9.70514 13.5199 10.7351 14.5499 12.0001 14.5499C13.2651 14.5499 14.2951 13.5199 14.2951 12.2549C14.2951 10.9899 13.2651 9.9599 12.0001 9.9599Z" fill="#878787"/>
<path d="M12 21.98C6.50002 21.98 2.02002 17.505 2.02002 12C2.02002 6.49502 6.50002 2.02502 12 2.02502C17.5 2.02502 21.98 6.50002 21.98 12.005C21.98 17.51 17.505 21.985 12 21.985V21.98ZM12 3.02502C7.05002 3.02502 3.02502 7.05002 3.02502 12C3.02502 16.95 7.05002 20.98 12.005 20.98C16.96 20.98 20.985 16.955 20.985 12C20.985 7.04502 16.95 3.02502 12 3.02502Z" fill="#878787"/>
</svg>

<svg xmlns="http://www.w3.org/2000/svg" width="24" height="24" fill="none" viewBox="0 0 24 24"><path fill="#878787" d="M5.09 12.785a.538.538 0 0 1-.46-.805c.45-.775 1.425-2.25 2.865-3.46C8.945 7.305 10.46 6.69 12 6.69a.536.536 0 0 1 0 1.07c-2.71 0-5.105 2.46-6.45 4.76-.1.17-.28.265-.46.265"/><path fill="#878787" d="M12 17.815c-1.54 0-3.055-.615-4.505-1.83-1.445-1.21-2.415-2.69-2.865-3.46a.53.53 0 0 1 .19-.73.53.53 0 0 1 .73.19c1.345 2.3 3.74 4.76 6.45 4.76a.536.536 0 0 1 0 1.07"/><path fill="#878787" d="M12 17.815a.536.536 0 0 1 0-1.07c2.71 0 5.105-2.46 6.45-4.76a.53.53 0 0 1 .73-.19c.255.15.34.475.19.73-.45.775-1.425 2.25-2.865 3.46-1.45 1.215-2.965 1.83-4.505 1.83"/><path fill="#878787" d="M18.915 12.785a.53.53 0 0 1-.46-.265c-1.345-2.3-3.74-4.76-6.45-4.76a.536.536 0 0 1 0-1.07c1.54 0 3.055.615 4.505 1.83 1.445 1.21 2.415 2.69 2.865 3.46.15.255.065.58-.19.73a.5.5 0 0 1-.27.075"/><path fill="#878787" d="M12 15.615a3.364 3.364 0 0 1-3.36-3.36c0-1.85 1.51-3.36 3.36-3.36s3.36 1.51 3.36 3.36-1.51 3.36-3.36 3.36m0-5.655a2.3 2.3 0 0 0-2.295 2.295A2.3 2.3 0 0 0 12 14.55a2.3 2.3 0 0 0 2.295-2.295A2.3 2.3 0 0 0 12 9.96"/><path fill="#878787" d="M12 21.98c-5.5 0-9.98-4.475-9.98-9.98S6.5 2.025 12 2.025s9.98 4.475 9.98 9.98-4.475 9.98-9.98 9.98zm0-18.955C7.05 3.025 3.025 7.05 3.025 12s4.025 8.98 8.98 8.98 8.98-4.025 8.98-8.98S16.95 3.025 12 3.025"/></svg>
